www/assets/icons/home_max.svg

<svg xmlns="http://www.w3.org/2000/svg" width="24" height="24" viewBox="0 0 24 24" fill='currentColor'><path d="M19 5H5C2.79 5 1 6.79 1 9v5c0 2.21 1.79 4 4 4h2v1h10v-1h2c2.21 0 4-1.79 4-4V9c0-2.21-1.79-4-4-4m2 9c0 1.1-.9 2-2 2H5c-1.1 0-2-.9-2-2V9c0-1.1.9-2 2-2h14c1.1 0 2 .9 2 2z"/></svg>

<svg width="24" height="24" viewBox="0 0 24 24" xmlns="http://www.w3.org/2000/svg" fill='currentColor'><path d="M19 5H5C2.79 5 1 6.79 1 9V14C1 16.21 2.79 18 5 18H7V19H17V18H19C21.21 18 23 16.21 23 14V9C23 6.79 21.21 5 19 5ZM21 14C21 15.1 20.1 16 19 16H5C3.9 16 3 15.1 3 14V9C3 7.9 3.9 7 5 7H19C20.1 7 21 7.9 21 9V14Z"/></svg>
